X:1
T:La mer
T:Baisers perdus
T:La mer
T:4. Baisers perdus
T:Marie Jaëll 
T:Jean Richepin 
T:Creative Commons copyright waiver (CC0 1.0 Universal)
T:Creative Commons copyright waiver (CC0 1.0 Universal)
T:Creative Commons copyright waiver (CC0 1.0 Universal)
T:Creative Commons copyright waiver (CC0 1.0 Universal)
T:Creative Commons copyright waiver (CC0 1.0 Universal)
T:Creative Commons copyright waiver (CC0 1.0 Universal)
T:Creative Commons copyright waiver (CC0 1.0 Universal)
T:Creative Commons copyright waiver (CC0 1.0 Universal)
C:Marie Jaëll
Z:Jean Richepin
Z:Creative Commons copyright waiver (CC0 1.0 Universal)
%%score 1 { 2 | 3 }
L:1/8
Q:1/4=116
M:6/8
K:D
V:1 treble nm="Chant\nVoice"
V:2 treble nm="Piano"
V:3 treble 
V:1
"^Allegretto" z6 | z6 | z6 | z6 | z A3/2 A/ d/ d/ =c A- | A/ _B/ A/ d/ =c/ g/ g3 | d z z z =B B | %7
w: ||||Pau- vres voy- a- geurs las|_ Qui vont cher- chant for- tu-|ne Des oi-|
 e2 c/ c/ c3- | c3/2 B/ B- B3/2 B/ B/ c/ | B3 z F F |"^Page 2" F2 ^G/ A/ B3 | z6 | z6 | z6 | z6 || %15
w: \- seaux de pas- sage|_ au mât _ se sont po-|sés, Et leur|chant re- ten- tit|||||
[K:F][M:4/4][Q:1/4=144]"^Plus vite, très passionné" z8 | z8 | z8 | z8 | %19
w: ||||
 z3/2 f/ e3/2 d/ _e3/2 d/ c3/2 B/ |"^Page 3" e3 E F F E2 | z8 | z8 | z8 | z8 | z8 | z8 | z8 || %28
w: La mer en- voie au ciel ses|vœux i- na- pai- sés||||||||
[K:D][M:6/8][Q:1/4=116]"^Allegretto" z6 | z6 | z6 | z6 | z A3/2 A/ d/ d/ =c A- | %33
w: ||||Pau- vres voy- a- geurs las|
"^Page 4" A/ _B/ A/ d/ =c/ g/ g2 d | z6 | z6 | z6 | z6 | z6 | z6 | z6 | z6 | z6 || %43
w: _ vous trou- ve- rez for- tu- ne.||||||||||
[K:F][M:4/4][Q:1/4=144]"^Plus vite, très passionné" z8 |"^Page 5" z8 | z2 z A e4- | e4- e2 z2 | %47
w: ||Mais toi,|_ _|
 z8 | z8 | z8 | z8 | z8 | z8 | B2 B d/ d/ f2 _e2 |"^Page 6" a8- | a2 g f (f4- | f3 e d2) z2 | z8 | %58
w: ||||||* vers les loin- tains bai-|\- sers|_ de la lu-|* * ne.||
 z8 ||[K:D][M:6/8][Q:1/4=116]"^Allegretto" z6 | z6 | z6 | z6 | z6 | z6 | %65
w: |||||||
 z2 z/ z/ _B A/ =B/4 B/4 A/ B/ |"^Page 7" A3 z z2 | z6 | z6 | z6 | z6 || %71
w: sûrs d'ê- tre ré- a- li-|\- sés!|||||
[K:F][M:4/4][Q:1/4=144]"^Plus vite, très passionné" z8 | z8 | z8 | z8 | z8 | z8 | A4 D2 z2 | %78
w: ||||||bru- ne,|
"^Page 8" z2 A3/2 A/ d2 d d | _e6 z2 | z8 | z8 | z8 | z8 | z8 | z8 | z8 | z8 | z8 | z8 |] %90
w: D'im- pos- si- bles dé-|sirs,|||||||||||
V:2
 z6 | z6 | z6 | z6 | z6 | z6 | z6 | z6 | z6 | z6 | z6 | z6 | z6 | z6 | z6 || %15
[K:F][M:4/4]"^Plus vite, très passionné" z8 | z8 | z8 | z8 | z8 | z8 | z8 | z8 | z8 | z8 | z8 | %26
 z8 | z8 ||[K:D][M:6/8] z6 | z6 | z6 | z6 | z6 | z6 | z6 | z6 | z6 | z6 | z6 | z6 | z6 | z6 | z6 || %43
[K:F][M:4/4]"^Plus vite, très passionné" z8 | z8 | z8 | z8 | z8 | z8 | z8 | z8 | z8 | z8 | z8 | %54
 z8 | z8 | z8 | z8 | z8 ||[K:D][M:6/8] z6 | z6 | z6 | z6 | z6 | z6 | z6 | z6 | z6 | z6 | z6 | z6 || %71
[K:F][M:4/4]"^Plus vite, très passionné" z8 | z8 | z8 | z8 | z8 | z8 | z8 | z8 | z8 | z8 | z8 | %82
 z8 | z8 | z8 | z8 | z8 | z8 | z8 | z8 |] %90
V:3
 z6 | z6 | z6 | z6 | z6 | z6 | z6 | z6 | z6 | z6 | z6 | z6 | z6 | z6 | z6 || %15
[K:F][M:4/4][K:bass] z/ z/ z/ z/ z2 z4 | (3(D,,D,F, (3A,F,D, (3D,,"_sim."D,F, (3A,F,D,) | z8 | z8 | %19
 z8 | z8 | z8 | z8 | z8 | z8 | z8 | z8 | z8 ||[K:D][M:6/8] z6 | z6 | z6 | z6 | z6 | z6 | z6 | z6 | %36
 z6 | z6 | z6 | z6 | z6 | z6 | z6 ||[K:F][M:4/4] z8 | (3(D,,A,,D, (3F,D,A,, (3D,,A,,D, (3F,D,A,, | %45
 (3D,,"_sim."A,,D, (3F,D,A,,) (3z z z (3z z z | z8 | z8 | z8 | z8 | z8 | z8 | z8 | z8 | z8 | z8 | %56
 z8 | z8 | z8 ||[K:D][M:6/8] z6 | z6 | z6 | z6 | z6 | z6 | z6 | z6 | z6 | z6 | z6 | z6 || %71
[K:F][M:4/4] z8 | z8 | z8 | z8 | z8 | z8 | z8 | z8 | z8 | z8 | z8 | z8 | z8 | z8 | z8 | z8 | z8 | %88
 z8 | z8 |] %90

